X:1
T: Softly Good Tumas
N:
C:
S:
A:
O:
R:
M:4/4
K:Dm
I:speed 200
%W: A1
% voice 1 (1 lines, 22 notes)
K:Dm
M:4/4
L:1/16
F2 E2 |D2 E2 F2 D2 E2 F2 G2 E2 |F4 D4 E4 ^C4 |D4 A,4 E4 A,4 |F4 A,4 E4 A,4 |
%W:
% voice 1 (1 lines, 19 notes)
D2 E2 F2 D2 E2 F2 G2 E2 |F4 D4 E4 ^C4 |D4 A,4 E4 A,4 |F4 D8 ^C4 |
%W: A2
% voice 1 (1 lines, 20 notes)
D2 E2 F2 D2 E2 F2 G2 E2 |F4 D4 E4 ^C4 |D4 A,4 E4 A,4 |F4 A,4 E4 A,4 |
%W:
% voice 1 (1 lines, 20 notes)
D2 E2 F2 D2 E2 F2 G2 E2 |F4 D4 E4 ^C4 |D4 A,4 E4 A,4 |F4 D8 d2 ^c2 |
%W: B1
% voice 1 (1 lines, 20 notes)
d2 e2 f2 d2 e2 f2 g2 e2 |f4 d4 e4 ^c4 |d4 A4 e4 A4 |f4 A4 e4 ^c4 |
%W:
% voice 1 (1 lines, 27 notes)
d2 e2 f2 d2 e2 f2 g2 e2 |f2 g2 a2 f2 e2 f2 g2 e2 |d2 e2 f2 d2 ^c2 d2 e2 c2 |d12 d2 ^c2 |
%W: B2
% voice 1 (1 lines, 20 notes)
d2 e2 f2 d2 e2 f2 g2 e2 |f4 d4 e4 ^c4 |d4 A4 e4 A4 |f4 A4 e4 ^c4 |
%W:
% voice 1 (1 lines, 25 notes)
d2 e2 f2 d2 e2 f2 g2 e2 |f2 g2 a2 f2 e2 f2 g2 e2 |d2 e2 f2 d2 ^c2 d2 e2 c2 |d12 ||
